svgs/pi.svg

<svg width="192" height="192" viewBox="0 0 192 192" fill="none" xmlns="http://www.w3.org/2000/svg">
<path d="M96 168C136.869 168 170 135.764 170 96C170 56.2355 136.869 24 96 24C55.1309 24 22 56.2355 22 96C22 135.764 55.1309 168 96 168Z" stroke="black" stroke-width="12" stroke-linecap="round" stroke-linejoin="round"/>
<path d="M76.1999 67.125C79.0717 67.125 81.3997 64.8584 81.3997 62.0625C81.3997 59.2666 79.0717 57 76.1999 57C73.3281 57 71 59.2666 71 62.0625C71 64.8584 73.3281 67.125 76.1999 67.125Z" stroke="black" stroke-width="12" stroke-linecap="round" stroke-linejoin="round"/>
<path d="M107.2 67.125C110.072 67.125 112.4 64.8584 112.4 62.0625C112.4 59.2666 110.072 57 107.2 57C104.328 57 102 59.2666 102 62.0625C102 64.8584 104.328 67.125 107.2 67.125Z" stroke="black" stroke-width="12" stroke-linecap="round" stroke-linejoin="round"/>
<path d="M76 88V143.948" stroke="black" stroke-width="12" stroke-linecap="round" stroke-linejoin="round"/>
<path d="M107 88V143.948" stroke="black" stroke-width="12" stroke-linecap="round" stroke-linejoin="round"/>
<path d="M134.625 67V71.8141C134.591 74.2974 133.573 76.6656 131.793 78.398C130.014 80.1305 127.619 81.0853 125.136 81.0525H66.4888C64.0057 81.0198 61.6112 81.9745 59.8318 83.7068C58.0525 85.4391 57.0339 87.8071 57 90.2902V95.1036" stroke="black" stroke-width="12" stroke-linecap="round" stroke-linejoin="round"/>
</svg>

<svg width="192" height="192" viewBox="0 0 192 192" fill="none" xmlns="http://www.w3.org/2000/svg"><path d="M96 168c40.869 0 74-32.236 74-72s-33.131-72-74-72c-40.87 0-74 32.236-74 72s33.13 72 74 72Z" stroke="#000" stroke-width="12" stroke-linecap="round" stroke-linejoin="round"/><path d="M76.2 67.125c2.872 0 5.2-2.267 5.2-5.063 0-2.795-2.328-5.062-5.2-5.062-2.872 0-5.2 2.267-5.2 5.063 0 2.795 2.328 5.062 5.2 5.062ZM107.2 67.125c2.872 0 5.2-2.267 5.2-5.063 0-2.795-2.328-5.062-5.2-5.062-2.872 0-5.2 2.267-5.2 5.063 0 2.795 2.328 5.062 5.2 5.062ZM76 88v55.948M107 88v55.948M134.625 67v4.814a9.365 9.365 0 0 1-9.489 9.239H66.489A9.366 9.366 0 0 0 57 90.29v4.814" stroke="#000" stroke-width="12" stroke-linecap="round" stroke-linejoin="round"/></svg>
